X: 407
T: Yuanyuan liaojian niangjia de men
L: 1/16
M: 2/4
K: Bb
g2 g2 g f' d' f' [I:setbarnb 1]| 
g2 g f2< d2 f | 
f2> c'2 b2 b f | 
g8 | 
g2 g2 g f' d' f' | 
g2 g f2< d2 f | 
f2> c'2 b2 d2 | 
c8 |]

@@@ Tune index: 9281
